dist/svgs/unicons/line/building.svg

<svg xmlns="http://www.w3.org/2000/svg" data-name="Layer 1" viewBox="0 0 24 24"><path d="M14 8h1a1 1 0 000-2h-1a1 1 0 000 2zm0 4h1a1 1 0 000-2h-1a1 1 0 000 2zM9 8h1a1 1 0 000-2H9a1 1 0 000 2zm0 4h1a1 1 0 000-2H9a1 1 0 000 2zm12 8h-1V3a1 1 0 00-1-1H5a1 1 0 00-1 1v17H3a1 1 0 000 2h18a1 1 0 000-2zm-8 0h-2v-4h2zm5 0h-3v-5a1 1 0 00-1-1h-4a1 1 0 00-1 1v5H6V4h12z"/></svg>

<svg xmlns="http://www.w3.org/2000/svg" data-name="Layer 1" viewBox="0 0 24 24"><path d="M14,8h1a1,1,0,0,0,0-2H14a1,1,0,0,0,0,2Zm0,4h1a1,1,0,0,0,0-2H14a1,1,0,0,0,0,2ZM9,8h1a1,1,0,0,0,0-2H9A1,1,0,0,0,9,8Zm0,4h1a1,1,0,0,0,0-2H9a1,1,0,0,0,0,2Zm12,8H20V3a1,1,0,0,0-1-1H5A1,1,0,0,0,4,3V20H3a1,1,0,0,0,0,2H21a1,1,0,0,0,0-2Zm-8,0H11V16h2Zm5,0H15V15a1,1,0,0,0-1-1H10a1,1,0,0,0-1,1v5H6V4H18Z"/></svg>
